X:1
T:G Major Samuel Holyoke, 1803
T:Isaac Watts, 1709 (Hymn 83, Book 2)     86. 86. (C. M.) 
T:Hampton Transcribed from The Columbian Repository, 1803.
%%score [ 1 2 3 4 ]
L:1/8
Q:1/4=110
M:2/2
K:A
V:1 treble nm="Tr." snm="Tr."
V:2 treble nm="C." snm="C."
V:3 treble-8 nm="T." snm="T."
V:4 bass nm="B." snm="B."
V:1
"^1. Thus    saith   the  Ruler  of  the skies:  \"Awake, my dreadful sword;  Awake, my wrath, and smite   the  man, and smite the man, A –\n2. Vengeance received the dread command, And arm-ed, down she flies;  Je – sus submits  t'his Fa –ther's  hand, his Father's hand, Je –\n         3. But  O!  the  wisdom  and the grace  That join with vengeance now ! He  dies to save  our  guil  –    ty    race,        our guilty race,  He" c8 | %1
 cB AG A2 B2 | e4 d4 | c6 G2 | A2 c2 B2 A2 | G6 E2 | A2 A2 A2 B2 | c6 d2 | e6 B2 | B2 B2 B2 c2 | %10
 d2 d2 dB AG | A2 c2 c2 B2 | e2 e2 e2 e2 | e6 e2 | (A3 B c2) B2 | e4 d4 | c8 |] %17
V:2
 A8 | E2 ED C2 F2 | E4 [EG]4 | [EA]6 E2 | E2 E2 E2 ^D2 | E6 z2 | z8 | z8 | %8
 z4 z2"^1. Awake, my wrath, A –\n  2. Je – sus submits,  Je –\n  3. He dies  to  save,  He" F2 | %9
 G2 G2 G2 A2 | %10
"^1. –wake, my wrath,   and smite the man, My   fel  –   low,\"    saith  the    Lord,          My    fel     –      –     low,     saith  the  Lord.\n2. –sus   sub – mits    t'his  Father's hand, And bows   his       head  and   dies,          And  bows _____  his       head  and dies.\n3.  dies   to       save    our    guil –  ty  race, And  yet      he        ri   –    ses    too,           And   yet _______ he       ri   –   ses   too." A2 A>G F2 E2 | %11
 E2 E2 A2 G2 | A2 E2 AG A2 | (A4 G2) E2 | (E2 A4) AF | E4 [EG]4 | [EA]8 |] %17
V:3
"^1. Thus   saith   the   Ruler   of   the  skies:  \"Awake, my dreadful sword;                           Awake, my wrath, and smite   the   man,        A  – \n2. Vengeance received the dread command,   And arm-ed, down she flies;                          Je – sus  submits  t'his  Fa–ther's  hand,        Je – \n       3. But    O!   the  wisdom  and  the  grace  That join with vengeance now!                        He   dies  to  save  our  guil   –   ty   race,         He" e8 | %1
 ed cB A2 d2 | c4 B4 | A6 B2 | c2 A2 G2 F2 | E6 z2 | z4 z2 E2 | A2 A2 A2 B2 | c6 ^d2 | e6 e2 | %10
 f2 f>e d2 cB | c2 e2 e2 d2 | cB AB cB c2 | (c4 B2) B2 | (c3 d e2) fd | c4 B4 | A8 |] %17
V:4
 A,8 | A,2 E,2 F,2 D,2 | E,4 E,4 | A,,6 E,2 | A,2 A,,2 B,,2 B,,2 | E,6 z2 | z8 | %7
 z4 z2"^1. Awake, my wrath, and smite the man,  A – \n  2. Je – sus submits   t'his Father's hand,  Je – \n  3. He  dies to  save    our  guil – ty  race,  He" E,2 | %8
 A,2 A,2 A,2 B,2 | E,2 E,2 E,2 A,2 | D,2 D,2 D,2 E,2 | %11
"^4. A person so divine was he\nWho yielded to be slain,\nThat he could give | his soul away,\nAnd take his life again." A,2 A,2 A,2 E,2 | %12
 A,,B,, C,D, E,2 A,2 | %13
"^5. Live, glorious Lord, and reign on high,\nLet every nation sing;\nAnd angels sound | with endless joy\nThe Savior and the King." E,6 E,2 | %14
 A,6 D,2 | E,4 E,4 | A,,8 |] %17

